static/cards/FrenchDeck/default/card_spades_05.svg

<svg width="219" height="304" viewBox="0 0 219 304" fill="none" xmlns="http://www.w3.org/2000/svg">
<g filter="url(#filter0_d_18_637)">
<g clip-path="url(#clip0_18_637)">
<rect x="8" y="4" width="203" height="288" rx="10" fill="white"/>
<path d="M16.1113 38.5547C16.1113 37.5537 16.6919 36.873 17.5728 36.873C18.2534 36.873 18.6938 37.2334 19.2144 38.2544C20.3154 40.3965 22.1572 41.5576 24.5596 41.5576C28.2031 41.5576 30.7456 38.9951 30.7456 35.3115C30.7456 31.7881 28.2832 29.3057 24.8198 29.3057C23.2583 29.3057 21.877 29.8262 20.7158 30.8672C19.2544 32.2285 18.854 32.4688 18.2134 32.4688C17.0723 32.4688 16.4917 31.5679 16.5918 30.0264L17.4727 18.8154C17.5928 17.334 18.4536 16.6333 20.1753 16.6333H31.4062C32.5674 16.6333 33.248 17.2139 33.248 18.1948C33.248 19.1558 32.5874 19.6963 31.4062 19.6963H20.6157L19.855 28.605H20.0552C20.9561 27.2637 23.2983 26.3027 25.6006 26.3027C30.6855 26.3027 34.269 29.9463 34.269 35.1313C34.269 40.6567 30.2852 44.5806 24.6997 44.5806C19.4146 44.5806 16.1113 41.3574 16.1113 38.5547Z" fill="#211C1D"/>
<path d="M24.2375 72C24.0275 72 23.8572 71.8365 23.8572 71.6348C23.8572 71.2053 24.9342 68.3825 25.1943 66.4832C25.2256 66.2548 24.9357 66.1637 24.8047 66.3495C24.177 67.2399 23.5441 68.1922 21.8225 68.2149C18.615 68.2572 16.7672 65.2101 17.7761 62.4373C18.2708 61.0778 25.0754 52 26 52C26.9245 52 33.7292 61.0778 34.2239 62.4373C35.2328 65.2101 33.385 68.2572 30.1775 68.2149C28.4559 68.1922 27.823 67.2399 27.1953 66.3495C27.0643 66.1637 26.7744 66.2548 26.8057 66.4832C27.0658 68.3825 28.1428 71.2053 28.1428 71.6348C28.1428 71.8365 27.9725 72 27.7625 72H24.2375Z" fill="#211C1D"/>
<path d="M202.889 257.445C202.889 258.446 202.308 259.127 201.427 259.127C200.747 259.127 200.306 258.767 199.786 257.746C198.685 255.604 196.843 254.442 194.44 254.442C190.797 254.442 188.254 257.005 188.254 260.688C188.254 264.212 190.717 266.694 194.18 266.694C195.742 266.694 197.123 266.174 198.284 265.133C199.746 263.771 200.146 263.531 200.787 263.531C201.928 263.531 202.508 264.432 202.408 265.974L201.527 277.185C201.407 278.666 200.546 279.367 198.825 279.367L187.594 279.367C186.433 279.367 185.752 278.786 185.752 277.805C185.752 276.844 186.413 276.304 187.594 276.304L198.384 276.304L199.145 267.395L198.945 267.395C198.044 268.736 195.702 269.697 193.399 269.697C188.314 269.697 184.731 266.054 184.731 260.869C184.731 255.343 188.715 251.419 194.3 251.419C199.585 251.419 202.889 254.643 202.889 257.445Z" fill="#211C1D"/>
<path d="M194.762 224C194.973 224 195.143 224.164 195.143 224.365C195.143 224.795 194.066 227.617 193.806 229.517C193.774 229.745 194.064 229.836 194.195 229.65C194.823 228.76 195.456 227.808 197.178 227.785C200.385 227.743 202.233 230.79 201.224 233.563C200.729 234.922 193.925 244 193 244C192.075 244 185.271 234.922 184.776 233.563C183.767 230.79 185.615 227.743 188.823 227.785C190.544 227.808 191.177 228.76 191.805 229.65C191.936 229.836 192.226 229.745 192.194 229.517C191.934 227.617 190.857 224.795 190.857 224.365C190.857 224.164 191.027 224 191.238 224L194.762 224Z" fill="#211C1D"/>
<path d="M61.353 76C60.8588 76 60.4582 75.6076 60.4582 75.1235C60.4582 74.0926 62.9923 67.318 63.6043 62.7596C63.6779 62.2115 62.9958 61.993 62.6876 62.4389C61.2105 64.5759 59.7215 66.8613 55.6706 66.9157C48.1234 67.0172 43.7757 59.7041 46.1497 53.0496C47.3137 49.7867 63.3245 28 65.5 28C67.6754 28 83.6864 49.7867 84.8503 53.0496C87.2243 59.7041 82.8766 67.0172 75.3294 66.9157C71.2785 66.8613 69.7895 64.5759 68.3124 62.4389C68.0042 61.993 67.3221 62.2115 67.3957 62.7596C68.0077 67.318 70.5418 74.0926 70.5418 75.1235C70.5418 75.6076 70.1412 76 69.647 76H61.353Z" fill="#211C1D"/>
<path d="M61.353 220C60.8588 220 60.4582 220.392 60.4582 220.877C60.4582 221.907 62.9923 228.682 63.6043 233.24C63.6779 233.789 62.9958 234.007 62.6876 233.561C61.2105 231.424 59.7215 229.139 55.6706 229.084C48.1234 228.983 43.7757 236.296 46.1497 242.95C47.3137 246.213 63.3245 268 65.5 268C67.6754 268 83.6864 246.213 84.8503 242.95C87.2243 236.296 82.8766 228.983 75.3294 229.084C71.2785 229.139 69.7895 231.424 68.3124 233.561C68.0042 234.007 67.3221 233.789 67.3957 233.24C68.0077 228.682 70.5418 221.907 70.5418 220.877C70.5418 220.392 70.1412 220 69.647 220H61.353Z" fill="#211C1D"/>
<path d="M149.353 76C148.859 76 148.458 75.6076 148.458 75.1235C148.458 74.0926 150.992 67.318 151.604 62.7596C151.678 62.2115 150.996 61.993 150.688 62.4389C149.211 64.5759 147.721 66.8613 143.671 66.9157C136.123 67.0172 131.776 59.7041 134.15 53.0496C135.314 49.7867 151.325 28 153.5 28C155.675 28 171.686 49.7867 172.85 53.0496C175.224 59.7041 170.877 67.0172 163.329 66.9157C159.279 66.8613 157.789 64.5759 156.312 62.4389C156.004 61.993 155.322 62.2115 155.396 62.7596C156.008 67.318 158.542 74.0926 158.542 75.1235C158.542 75.6076 158.141 76 157.647 76H149.353Z" fill="#211C1D"/>
<path d="M105.353 172C104.859 172 104.458 171.608 104.458 171.123C104.458 170.093 106.992 163.318 107.604 158.76C107.678 158.211 106.996 157.993 106.688 158.439C105.211 160.576 103.721 162.861 99.6706 162.916C92.1234 163.017 87.7757 155.704 90.1497 149.05C91.3137 145.787 107.325 124 109.5 124C111.675 124 127.686 145.787 128.85 149.05C131.224 155.704 126.877 163.017 119.329 162.916C115.279 162.861 113.789 160.576 112.312 158.439C112.004 157.993 111.322 158.211 111.396 158.76C112.008 163.318 114.542 170.093 114.542 171.123C114.542 171.608 114.141 172 113.647 172H105.353Z" fill="#211C1D"/>
<path d="M149.353 220C148.859 220 148.458 220.392 148.458 220.877C148.458 221.907 150.992 228.682 151.604 233.24C151.678 233.789 150.996 234.007 150.688 233.561C149.211 231.424 147.721 229.139 143.671 229.084C136.123 228.983 131.776 236.296 134.15 242.95C135.314 246.213 151.325 268 153.5 268C155.675 268 171.686 246.213 172.85 242.95C175.224 236.296 170.877 228.983 163.329 229.084C159.279 229.139 157.789 231.424 156.312 233.561C156.004 234.007 155.322 233.789 155.396 233.24C156.008 228.682 158.542 221.907 158.542 220.877C158.542 220.392 158.141 220 157.647 220H149.353Z" fill="#211C1D"/>
</g>
</g>
<defs>
<filter id="filter0_d_18_637" x="0" y="0" width="219" height="304" filterUnits="userSpaceOnUse" color-interpolation-filters="sRGB">
<feFlood flood-opacity="0" result="BackgroundImageFix"/>
<feColorMatrix in="SourceAlpha" type="matrix" values="0 0 0 0 0 0 0 0 0 0 0 0 0 0 0 0 0 0 127 0" result="hardAlpha"/>
<feOffset dy="4"/>
<feGaussianBlur stdDeviation="4"/>
<feComposite in2="hardAlpha" operator="out"/>
<feColorMatrix type="matrix" values="0 0 0 0 0.614771 0 0 0 0 0.70094 0 0 0 0 0.806257 0 0 0 1 0"/>
<feBlend mode="normal" in2="BackgroundImageFix" result="effect1_dropShadow_18_637"/>
<feBlend mode="normal" in="SourceGraphic" in2="effect1_dropShadow_18_637" result="shape"/>
</filter>
<clipPath id="clip0_18_637">
<rect x="8" y="4" width="203" height="288" rx="10" fill="white"/>
</clipPath>
</defs>
</svg>

<svg xmlns="http://www.w3.org/2000/svg" width="219" height="304" fill="none" viewBox="0 0 219 304"><g filter="url(#a)"><g clip-path="url(#b)"><rect width="203" height="288" x="8" y="4" fill="#fff" rx="10"/><path fill="#211c1d" d="M16.111 38.555c0-1.001.58-1.682 1.462-1.682.68 0 1.12.36 1.641 1.381 1.101 2.143 2.943 3.304 5.346 3.304 3.643 0 6.186-2.563 6.186-6.246 0-3.524-2.463-6.006-5.926-6.006-1.562 0-2.943.52-4.104 1.561-1.462 1.361-1.862 1.602-2.503 1.602-1.14 0-1.721-.901-1.621-2.443l.88-11.21c.12-1.482.982-2.183 2.703-2.183h11.231c1.161 0 1.842.58 1.842 1.562 0 .96-.66 1.501-1.842 1.501h-10.79l-.761 8.909h.2c.901-1.341 3.243-2.302 5.546-2.302 5.085 0 8.668 3.643 8.668 8.828 0 5.526-3.984 9.45-9.57 9.45-5.284 0-8.588-3.224-8.588-6.026M24.238 72a.373.373 0 0 1-.38-.365c0-.43 1.076-3.253 1.336-5.152.032-.228-.258-.32-.39-.133-.627.89-1.26 1.842-2.981 1.865-3.208.042-5.056-3.005-4.047-5.778C18.271 61.077 25.076 52 26 52s7.73 9.078 8.224 10.437c1.009 2.773-.839 5.82-4.046 5.778-1.722-.023-2.355-.975-2.983-1.865-.13-.186-.42-.095-.39.133.26 1.9 1.338 4.722 1.338 5.152 0 .201-.17.365-.38.365zM202.889 257.445c0 1.001-.581 1.682-1.462 1.682-.68 0-1.121-.36-1.641-1.381-1.101-2.142-2.943-3.304-5.346-3.304-3.643 0-6.186 2.563-6.186 6.246 0 3.524 2.463 6.006 5.926 6.006 1.562 0 2.943-.52 4.104-1.561 1.462-1.362 1.862-1.602 2.503-1.602 1.141 0 1.721.901 1.621 2.443l-.881 11.211c-.12 1.481-.981 2.182-2.702 2.182h-11.231c-1.161 0-1.842-.581-1.842-1.562 0-.961.661-1.501 1.842-1.501h10.79l.761-8.909h-.2c-.901 1.341-3.243 2.302-5.546 2.302-5.085 0-8.668-3.643-8.668-8.828 0-5.526 3.984-9.45 9.569-9.45 5.285 0 8.589 3.224 8.589 6.026M194.762 224c.211 0 .381.164.381.365 0 .43-1.077 3.252-1.337 5.152-.032.228.258.319.389.133.628-.89 1.261-1.842 2.983-1.865 3.207-.042 5.055 3.005 4.046 5.778C200.729 234.922 193.925 244 193 244s-7.729-9.078-8.224-10.437c-1.009-2.773.839-5.82 4.047-5.778 1.721.023 2.354.975 2.982 1.865.131.186.421.095.389-.133-.26-1.9-1.337-4.722-1.337-5.152 0-.201.17-.365.381-.365zM61.353 76a.886.886 0 0 1-.895-.876c0-1.031 2.534-7.806 3.146-12.364.074-.548-.608-.767-.916-.321-1.477 2.137-2.967 4.422-7.017 4.477-7.548.101-11.895-7.212-9.521-13.866C47.314 49.787 63.325 28 65.5 28s18.186 21.787 19.35 25.05c2.374 6.654-1.973 13.967-9.52 13.866-4.052-.055-5.54-2.34-7.018-4.477-.308-.446-.99-.227-.916.32.612 4.559 3.146 11.334 3.146 12.365 0 .484-.4.876-.895.876zM61.353 220a.886.886 0 0 0-.895.877c0 1.03 2.534 7.805 3.146 12.363.074.549-.608.767-.916.321-1.477-2.137-2.967-4.422-7.017-4.477-7.548-.101-11.895 7.212-9.521 13.866C47.314 246.213 63.325 268 65.5 268s18.186-21.787 19.35-25.05c2.374-6.654-1.973-13.967-9.52-13.866-4.052.055-5.54 2.34-7.018 4.477-.308.446-.99.228-.916-.321.612-4.558 3.146-11.333 3.146-12.363 0-.485-.4-.877-.895-.877zM149.353 76a.886.886 0 0 1-.895-.876c0-1.031 2.534-7.806 3.146-12.364.074-.548-.608-.767-.916-.321-1.477 2.137-2.967 4.422-7.017 4.477-7.548.101-11.895-7.212-9.521-13.866C135.314 49.787 151.325 28 153.5 28s18.186 21.787 19.35 25.05c2.374 6.654-1.973 13.967-9.521 13.866-4.05-.055-5.54-2.34-7.017-4.477-.308-.446-.99-.227-.916.32.612 4.559 3.146 11.334 3.146 12.365a.886.886 0 0 1-.895.876zM105.353 172a.886.886 0 0 1-.895-.877c0-1.03 2.534-7.805 3.146-12.363.074-.549-.608-.767-.916-.321-1.477 2.137-2.967 4.422-7.017 4.477-7.548.101-11.895-7.212-9.521-13.866 1.164-3.263 17.175-25.05 19.35-25.05s18.186 21.787 19.35 25.05c2.374 6.654-1.973 13.967-9.521 13.866-4.05-.055-5.54-2.34-7.017-4.477-.308-.446-.99-.228-.916.321.612 4.558 3.146 11.333 3.146 12.363a.886.886 0 0 1-.895.877zM149.353 220a.886.886 0 0 0-.895.877c0 1.03 2.534 7.805 3.146 12.363.074.549-.608.767-.916.321-1.477-2.137-2.967-4.422-7.017-4.477-7.548-.101-11.895 7.212-9.521 13.866 1.164 3.263 17.175 25.05 19.35 25.05s18.186-21.787 19.35-25.05c2.374-6.654-1.973-13.967-9.521-13.866-4.05.055-5.54 2.34-7.017 4.477-.308.446-.99.228-.916-.321.612-4.558 3.146-11.333 3.146-12.363a.886.886 0 0 0-.895-.877z"/></g></g><defs><clipPath id="b"><rect width="203" height="288" x="8" y="4" fill="#fff" rx="10"/></clipPath><filter id="a" width="219" height="304" x="0" y="0" color-interpolation-filters="sRGB" filterUnits="userSpaceOnUse"><feFlood flood-opacity="0" result="BackgroundImageFix"/><feColorMatrix in="SourceAlpha" result="hardAlpha" values="0 0 0 0 0 0 0 0 0 0 0 0 0 0 0 0 0 0 127 0"/><feOffset dy="4"/><feGaussianBlur stdDeviation="4"/><feComposite in2="hardAlpha" operator="out"/><feColorMatrix values="0 0 0 0 0.614771 0 0 0 0 0.70094 0 0 0 0 0.806257 0 0 0 1 0"/><feBlend in2="BackgroundImageFix" result="effect1_dropShadow_18_637"/><feBlend in="SourceGraphic" in2="effect1_dropShadow_18_637" result="shape"/></filter></defs></svg>
